icons/svgs/calendar-days-solid.svg

<svg width="24" height="24" viewBox="0 0 24 24" fill="none" xmlns="http://www.w3.org/2000/svg">
<path d="M8.25 2C8.91406 2 9.5 2.58594 9.5 3.25V4.5H14.5V3.25C14.5 2.58594 15.0469 2 15.75 2C16.4141 2 17 2.58594 17 3.25V4.5H18.875C19.8906 4.5 20.75 5.35938 20.75 6.375V8.25H3.25V6.375C3.25 5.35938 4.07031 4.5 5.125 4.5H7V3.25C7 2.58594 7.54688 2 8.25 2ZM3.25 9.5H20.75V20.125C20.75 21.1797 19.8906 22 18.875 22H5.125C4.07031 22 3.25 21.1797 3.25 20.125V9.5ZM5.75 12.625V13.875C5.75 14.2266 6.02344 14.5 6.375 14.5H7.625C7.9375 14.5 8.25 14.2266 8.25 13.875V12.625C8.25 12.3125 7.9375 12 7.625 12H6.375C6.02344 12 5.75 12.3125 5.75 12.625ZM10.75 12.625V13.875C10.75 14.2266 11.0234 14.5 11.375 14.5H12.625C12.9375 14.5 13.25 14.2266 13.25 13.875V12.625C13.25 12.3125 12.9375 12 12.625 12H11.375C11.0234 12 10.75 12.3125 10.75 12.625ZM16.375 12C16.0234 12 15.75 12.3125 15.75 12.625V13.875C15.75 14.2266 16.0234 14.5 16.375 14.5H17.625C17.9375 14.5 18.25 14.2266 18.25 13.875V12.625C18.25 12.3125 17.9375 12 17.625 12H16.375ZM5.75 17.625V18.875C5.75 19.2266 6.02344 19.5 6.375 19.5H7.625C7.9375 19.5 8.25 19.2266 8.25 18.875V17.625C8.25 17.3125 7.9375 17 7.625 17H6.375C6.02344 17 5.75 17.3125 5.75 17.625ZM11.375 17C11.0234 17 10.75 17.3125 10.75 17.625V18.875C10.75 19.2266 11.0234 19.5 11.375 19.5H12.625C12.9375 19.5 13.25 19.2266 13.25 18.875V17.625C13.25 17.3125 12.9375 17 12.625 17H11.375ZM15.75 17.625V18.875C15.75 19.2266 16.0234 19.5 16.375 19.5H17.625C17.9375 19.5 18.25 19.2266 18.25 18.875V17.625C18.25 17.3125 17.9375 17 17.625 17H16.375C16.0234 17 15.75 17.3125 15.75 17.625Z" fill="black"/>
</svg>

<svg xmlns="http://www.w3.org/2000/svg" width="24" height="24" fill="currentColor" class="icon-calendar-days-solid" viewBox="0 0 24 24">
  <mask id="a" width="18" height="20" x="3" y="2" maskUnits="userSpaceOnUse" style="mask-type:alpha">
    <path d="M8.25 2c.664 0 1.25.586 1.25 1.25V4.5h5V3.25c0-.664.547-1.25 1.25-1.25.664 0 1.25.586 1.25 1.25V4.5h1.875c1.016 0 1.875.86 1.875 1.875V8.25H3.25V6.375c0-1.016.82-1.875 1.875-1.875H7V3.25C7 2.586 7.547 2 8.25 2m-5 7.5h17.5v10.625c0 1.055-.86 1.875-1.875 1.875H5.125a1.85 1.85 0 0 1-1.875-1.875zm2.5 3.125v1.25c0 .352.273.625.625.625h1.25a.64.64 0 0 0 .625-.625v-1.25c0-.312-.312-.625-.625-.625h-1.25a.64.64 0 0 0-.625.625m5 0v1.25c0 .352.273.625.625.625h1.25a.64.64 0 0 0 .625-.625v-1.25c0-.312-.312-.625-.625-.625h-1.25a.64.64 0 0 0-.625.625M16.375 12a.64.64 0 0 0-.625.625v1.25c0 .352.273.625.625.625h1.25a.64.64 0 0 0 .625-.625v-1.25c0-.312-.312-.625-.625-.625zM5.75 17.625v1.25c0 .352.273.625.625.625h1.25a.64.64 0 0 0 .625-.625v-1.25c0-.312-.312-.625-.625-.625h-1.25a.64.64 0 0 0-.625.625M11.375 17a.64.64 0 0 0-.625.625v1.25c0 .352.273.625.625.625h1.25a.64.64 0 0 0 .625-.625v-1.25c0-.312-.312-.625-.625-.625zm4.375.625v1.25c0 .352.273.625.625.625h1.25a.64.64 0 0 0 .625-.625v-1.25c0-.312-.312-.625-.625-.625h-1.25a.64.64 0 0 0-.625.625"/>
  </mask>
  <g mask="url(#a)">
    <path d="M0 0h24v24H0z"/>
  </g>
</svg>
